apps/trade/public/tokens/tia.svg

<svg width="24" height="24" viewBox="0 0 24 24" fill="none" xmlns="http://www.w3.org/2000/svg">
<rect width="24" height="24" rx="12" fill="#7B2BF9"/>
<path d="M19.8266 10.3386C19.5267 8.92969 18.8523 7.62783 17.8746 6.57025C16.8969 5.51267 15.652 4.73856 14.2712 4.32953C12.8905 3.9205 11.4249 3.89171 10.0292 4.24618C8.63341 4.60066 7.35911 5.32527 6.34062 6.34363C5.97728 6.70708 5.6493 7.10427 5.36113 7.52983C5.27647 7.64304 5.20021 7.7623 5.13297 7.88665C4.57267 8.82475 4.21027 9.86764 4.06809 10.9511C3.9259 12.0346 4.00694 13.1357 4.30621 14.1867C4.60549 15.2376 5.11666 16.2162 5.80826 17.0621C6.49986 17.908 7.35724 18.6033 8.32761 19.1053C9.29798 19.6073 10.3608 19.9052 11.4506 19.9808C12.5405 20.0564 13.6342 19.9081 14.6646 19.5449C15.6949 19.1817 16.64 18.6114 17.4417 17.8691C18.2434 17.1268 18.8848 16.2282 19.3262 15.2286C19.3741 15.1294 19.4163 15.0276 19.4525 14.9236C19.8158 13.9929 20.0015 13.0024 20 12.0033C20.0001 11.451 19.9437 10.9002 19.8315 10.3594C19.8301 10.3525 19.8288 10.3455 19.8266 10.3386ZM17.0521 6.6789C17.0982 6.72251 17.1438 6.76711 17.1888 6.81221C17.8855 7.50689 18.4353 8.33479 18.8052 9.24656C18.8136 9.2671 18.8162 9.2895 18.813 9.31143C18.8097 9.33335 18.8006 9.354 18.7866 9.37121C18.7726 9.38842 18.7543 9.40157 18.7335 9.40928C18.7128 9.41699 18.6903 9.41899 18.6685 9.41506C18.4338 9.37573 18.1959 9.35913 17.958 9.3655C17.8701 9.36732 17.7844 9.33775 17.7163 9.28207C17.6482 9.22639 17.6021 9.14826 17.5864 9.0617C17.4438 8.26132 17.2374 7.52215 16.9723 6.87689C16.9572 6.84021 16.9421 6.80379 16.9265 6.76786C16.9192 6.75128 16.9179 6.7327 16.9227 6.71524C16.9275 6.69779 16.9382 6.68254 16.953 6.67207C16.9678 6.6616 16.9857 6.65657 17.0038 6.65781C17.0218 6.65906 17.0389 6.6665 17.0521 6.6789ZM17.8131 11.3744C17.8127 11.3561 17.8181 11.3382 17.8286 11.3233C17.8391 11.3084 17.854 11.2972 17.8713 11.2915C17.8886 11.2857 17.9073 11.2856 17.9247 11.2913C17.942 11.2969 17.9571 11.308 17.9677 11.3228C18.0276 11.4071 18.0854 11.4917 18.1411 11.5766C18.2147 11.6896 18.2833 11.8019 18.3467 11.9136C18.3659 11.9476 18.3739 11.9868 18.3694 12.0256C18.365 12.0645 18.3484 12.1009 18.3219 12.1297C18.2362 12.2238 18.143 12.3213 18.0422 12.4221C18.0053 12.459 17.9679 12.4964 17.9295 12.5328C17.9188 12.5424 17.9056 12.5486 17.8915 12.5509C17.8773 12.5531 17.8628 12.5511 17.8497 12.5453C17.8366 12.5395 17.8255 12.53 17.8177 12.5179C17.8099 12.5059 17.8057 12.4919 17.8057 12.4776C17.8105 12.3571 17.8139 12.2362 17.8161 12.1148C17.82 11.866 17.8188 11.6192 17.8124 11.3744H17.8131ZM7.73777 6.02397C8.98 5.13393 10.4706 4.65715 11.9986 4.6611C12.4033 4.66104 12.8074 4.69419 13.2067 4.76022C13.2303 4.76414 13.2523 4.77483 13.27 4.79098C13.2877 4.80713 13.3003 4.82807 13.3063 4.85124C13.3123 4.87442 13.3115 4.89884 13.3039 4.92156C13.2964 4.94428 13.2824 4.96433 13.2637 4.97927C12.8805 5.27984 12.5242 5.72464 12.2091 6.3015C12.1719 6.36974 12.1126 6.42332 12.041 6.45348C11.9693 6.48364 11.8896 6.48859 11.8148 6.46753C10.7706 6.17339 9.74307 6.03512 8.7938 6.06833C8.46063 6.07904 8.1287 6.11424 7.80069 6.17364C7.78219 6.17666 7.76322 6.17336 7.74683 6.16428C7.73043 6.1552 7.71757 6.14087 7.71031 6.12359C7.70304 6.10631 7.7018 6.08709 7.70678 6.06902C7.71176 6.05095 7.72268 6.03509 7.73777 6.02397ZM6.6899 16.9899C6.53582 16.6988 6.73524 16.0235 7.74817 14.9991C7.77316 14.9739 7.79255 14.9437 7.80507 14.9105C7.81759 14.8773 7.82296 14.8418 7.82083 14.8064C7.81871 14.7709 7.80913 14.7364 7.79272 14.7049C7.77632 14.6734 7.75345 14.6458 7.72563 14.6237C7.685 14.5918 7.64487 14.5595 7.60474 14.5273C7.55613 14.4879 7.49466 14.4679 7.43217 14.4711C7.36968 14.4744 7.31061 14.5007 7.26635 14.5449L7.22672 14.5848C6.72037 15.1052 6.36613 15.5859 6.16746 16.0188C6.15441 16.0465 6.13426 16.0703 6.10906 16.0877C6.08386 16.1051 6.05451 16.1155 6.02398 16.1178C5.99346 16.1202 5.96285 16.1144 5.93528 16.1011C5.9077 16.0878 5.88413 16.0675 5.86697 16.0421C5.07521 14.8442 4.65491 13.4391 4.65883 12.003C4.65861 11.4882 4.71208 10.9747 4.81837 10.4709C4.82152 10.4545 4.83011 10.4396 4.84275 10.4287C4.85539 10.4178 4.87135 10.4114 4.88804 10.4107C4.90473 10.4099 4.92118 10.4148 4.93474 10.4246C4.94831 10.4344 4.95819 10.4484 4.96279 10.4645C5.11489 10.9675 5.36286 11.4876 5.70595 12.0134C6.16696 12.7216 6.77487 13.4023 7.49525 14.0268C7.74124 14.2399 8.0011 14.4461 8.27186 14.6463C8.83609 15.0597 9.43131 15.4291 10.0522 15.7512C10.3336 15.8974 10.6076 16.0369 10.8883 16.1633C10.9655 16.1983 11.0489 16.2175 11.1337 16.2198C11.2184 16.2221 11.3028 16.2074 11.3818 16.1767C11.5139 16.1246 11.6471 16.0707 11.7816 16.0148C11.8521 15.9852 11.9096 15.9312 11.9437 15.8627C11.9779 15.7943 11.9863 15.7158 11.9676 15.6417L11.957 15.5981C11.736 14.6678 11.6131 13.6204 11.5985 12.5237C11.5985 12.5105 11.5985 12.4971 11.5985 12.484C11.5985 12.424 11.5985 12.3638 11.597 12.3039C11.597 12.2848 11.597 12.2526 11.597 12.2332C11.597 12.2258 11.597 12.2181 11.597 12.2107C11.597 12.142 11.597 12.0737 11.5993 12.0048C11.6025 11.8164 11.6094 11.6296 11.6191 11.4445C11.6874 10.121 11.9116 8.87709 12.2688 7.8309C12.2847 7.78443 12.2814 7.73358 12.2598 7.68953C12.2381 7.64548 12.1999 7.61183 12.1534 7.59599C12.0589 7.56295 11.9646 7.53206 11.8705 7.50331C11.8247 7.48898 11.7751 7.49311 11.7323 7.51481C11.6895 7.53652 11.6569 7.5741 11.6414 7.61953C11.2544 8.75567 11.0159 10.1037 10.952 11.53C10.9481 11.6191 10.9221 11.7058 10.8763 11.7823C10.8305 11.8588 10.7663 11.9227 10.6896 11.9681C9.84514 12.4689 9.06952 12.9997 8.39943 13.5347C8.33163 13.5885 8.24714 13.617 8.16058 13.6152C8.07401 13.6134 7.99079 13.5814 7.92529 13.5247C7.25372 12.9424 6.68842 12.3105 6.2611 11.6534C5.42157 10.3634 5.22067 9.14843 5.69951 8.23381L5.70323 8.22737C5.764 8.12627 5.82734 8.02657 5.89323 7.92828C6.44193 7.20175 7.46329 6.78074 8.81635 6.73316C8.90206 6.73019 8.98843 6.7287 9.07546 6.7287C9.90632 6.7287 10.7979 6.86574 11.7048 7.12741L11.7645 7.145L11.8103 7.15838C12.0199 7.22116 12.23 7.29037 12.4405 7.36603L12.4554 7.37149C12.51 7.39131 12.5648 7.41155 12.6196 7.4322L12.6711 7.45177L12.7207 7.47085C13.172 7.64575 13.6134 7.84536 14.0428 8.06878C14.8603 8.49054 15.6294 9.00021 16.3364 9.58876C15.0508 9.88339 13.5563 10.4518 12.0538 11.2183C12.0197 11.2356 11.9907 11.2616 11.9697 11.2936C11.9488 11.3257 11.9366 11.3627 11.9344 11.4009C11.9292 11.4941 11.9223 11.6814 11.9173 11.8303C11.9166 11.8516 11.9215 11.8728 11.9315 11.8916C11.9415 11.9104 11.9563 11.9263 11.9743 11.9376C11.9924 11.9489 12.0131 11.9553 12.0344 11.9561C12.0557 11.9569 12.0768 11.952 12.0957 11.9421C13.582 11.1608 15.0683 10.5767 16.3431 10.268C16.458 10.24 16.5584 10.1704 16.6248 10.0725C16.6912 9.97462 16.7188 9.85555 16.7023 9.73843C16.6787 9.56861 16.6524 9.40159 16.6233 9.23739C16.5876 9.03072 16.4753 8.84511 16.3089 8.71751C15.6922 8.24925 15.0365 7.83474 14.349 7.47853C13.8819 7.23547 13.4014 7.01929 12.9097 6.83104C12.8854 6.82175 12.8634 6.80735 12.8452 6.78881C12.827 6.77027 12.8129 6.74802 12.804 6.72358C12.7952 6.69914 12.7916 6.67307 12.7937 6.64715C12.7958 6.62123 12.8034 6.59605 12.8161 6.57334C13.3132 5.68325 13.906 5.18568 14.4812 5.18568H14.4991C15.1791 5.19782 15.8568 5.90577 16.359 7.1284C16.6129 7.74789 16.8098 8.4608 16.9443 9.2364C16.9437 9.23567 16.9431 9.23501 16.9424 9.23441C16.9998 9.56547 17.0459 9.90743 17.0803 10.2583L17.0712 10.2638L17.0836 10.2761C17.1414 10.8831 17.1647 11.4928 17.1532 12.1024C17.146 12.4989 17.1249 12.8884 17.091 13.2703C16.1814 14.0055 15.057 14.7372 13.8211 15.3924C13.4148 15.6077 13.0085 15.8082 12.6072 15.9928L12.5887 16.0012L12.4963 16.0436C12.1632 16.1943 11.8338 16.3334 11.5083 16.4611L11.4533 16.4822L11.385 16.5087C11.3305 16.5297 11.2762 16.5503 11.2222 16.5704L11.1774 16.5873C11.1117 16.612 11.0463 16.6353 10.9812 16.6586C10.9733 16.6616 10.9651 16.6648 10.9564 16.6675C10.2608 16.9153 9.59816 17.1024 8.99421 17.2189C7.53364 17.5009 6.84597 17.2853 6.6899 16.9899ZM8.70116 14.1403C9.34796 13.6135 10.1057 13.0879 10.9368 12.5903C10.9547 13.6538 11.0714 14.6748 11.2777 15.5971C10.9694 15.4649 10.6626 15.32 10.3574 15.1624C9.78064 14.8635 9.22701 14.5218 8.70116 14.1403ZM12.9454 19.2843C12.6314 19.3245 12.3151 19.3447 11.9986 19.3447C10.5933 19.3486 9.21693 18.9462 8.03503 18.1858C8.01764 18.1743 8.00433 18.1576 7.99699 18.138C7.98964 18.1185 7.98865 18.0972 7.99414 18.077C7.99962 18.0569 8.01132 18.039 8.02756 18.026C8.0438 18.0129 8.06375 18.0052 8.08458 18.0041C8.1044 18.0041 8.12297 18.0024 8.13932 18.0012C8.46764 17.9778 8.79418 17.9341 9.11708 17.8703C9.86941 17.7254 10.7057 17.4771 11.5814 17.1426C11.6192 17.1284 11.6611 17.1295 11.6981 17.1457C11.7351 17.1619 11.7644 17.1919 11.7796 17.2293V17.2308C12.119 18.0572 12.5366 18.6819 13.0056 19.0791C13.0227 19.0938 13.0353 19.1131 13.0417 19.1348C13.0481 19.1564 13.0482 19.1795 13.0418 19.2012C13.0355 19.2228 13.023 19.2422 13.0059 19.257C12.9888 19.2717 12.9677 19.2812 12.9454 19.2843ZM16.0481 17.324C15.5242 18.3548 14.8788 18.9334 14.2533 18.9217C13.5736 18.9096 12.8956 18.2016 12.3937 16.979C12.3784 16.9416 12.3784 16.8998 12.3937 16.8624C12.4089 16.825 12.4382 16.7951 12.4752 16.779L12.4913 16.7721C12.5243 16.7578 12.5612 16.7552 12.5958 16.7649C13.5347 17.0286 14.4599 17.1661 15.327 17.1661C15.4211 17.1661 15.5146 17.1645 15.6074 17.1614C15.7159 17.1574 15.8227 17.1513 15.9277 17.1431C15.9497 17.1416 15.9716 17.146 15.9914 17.1558C16.0111 17.1656 16.028 17.1804 16.0402 17.1987C16.0524 17.217 16.0595 17.2383 16.0609 17.2603C16.0623 17.2822 16.0579 17.3042 16.0481 17.324ZM16.274 16.4373C16.0451 16.4701 15.8147 16.4903 15.5836 16.498C14.9639 16.5152 14.3441 16.4654 13.7351 16.3494C13.718 16.3463 13.7024 16.3379 13.6904 16.3254C13.6783 16.3129 13.6705 16.2969 13.6681 16.2797C13.6656 16.2625 13.6686 16.245 13.6766 16.2296C13.6847 16.2143 13.6973 16.2018 13.7128 16.194C13.8522 16.1236 13.9916 16.0514 14.131 15.9774C15.0645 15.4858 15.9624 14.9294 16.8183 14.3122C16.8316 14.3026 16.8475 14.2971 16.8639 14.2966C16.8803 14.296 16.8965 14.3003 16.9105 14.309C16.9245 14.3177 16.9355 14.3304 16.9422 14.3454C16.949 14.3604 16.9511 14.3771 16.9483 14.3933C16.8464 15.0247 16.6938 15.6468 16.492 16.2537C16.4761 16.3015 16.4474 16.3439 16.4089 16.3763C16.3704 16.4087 16.3237 16.4298 16.274 16.4373ZM17.3573 17.0197C17.3021 17.0786 17.2456 17.1371 17.1881 17.1931C17.089 17.2932 16.9867 17.3899 16.8812 17.4833C16.8671 17.4957 16.8493 17.5029 16.8306 17.5038C16.8119 17.5046 16.7934 17.4989 16.7784 17.4878C16.7633 17.4766 16.7525 17.4607 16.7478 17.4425C16.7432 17.4244 16.7448 17.4052 16.7526 17.3881C16.7633 17.3653 16.774 17.3423 16.7846 17.319C16.8283 17.222 16.8709 17.1229 16.9121 17.0216C16.917 17.0098 16.9246 16.9993 16.9342 16.9909C16.9438 16.9825 16.9553 16.9765 16.9676 16.9733C17.0717 16.9467 17.1731 16.9176 17.2718 16.8858C17.2892 16.8797 17.3081 16.8796 17.3255 16.8856C17.3429 16.8916 17.3577 16.9033 17.3676 16.9188C17.3775 16.9343 17.3819 16.9527 17.38 16.971C17.3782 16.9894 17.3701 17.0065 17.3573 17.0197ZM18.8322 14.6904C18.7971 14.7802 18.7601 14.8694 18.7213 14.9577C18.7153 14.9699 18.7096 14.9825 18.7032 14.9942C18.4611 15.4603 18.0551 15.827 17.5126 16.0825C17.4854 16.0954 17.4551 16.1002 17.4252 16.0964C17.3954 16.0926 17.3672 16.0802 17.3442 16.0609C17.3211 16.0415 17.3041 16.0159 17.2952 15.9871C17.2863 15.9584 17.2858 15.9277 17.2939 15.8986C17.4812 15.2172 17.6165 14.5225 17.6987 13.8206C17.7154 13.6838 17.7825 13.5581 17.8869 13.468C18.1099 13.275 18.3185 13.0822 18.5102 12.8906L18.5122 12.8884C18.5338 12.8669 18.5606 12.8513 18.5901 12.8432C18.6195 12.8351 18.6505 12.8348 18.6801 12.8423C18.7097 12.8498 18.7369 12.8648 18.7589 12.8859C18.781 12.907 18.7972 12.9335 18.806 12.9627C18.9952 13.5926 19.0059 14.1792 18.8322 14.6906V14.6904ZM18.9791 11.251C18.9667 11.2736 18.9486 11.2926 18.9266 11.3061C18.9046 11.3196 18.8794 11.3271 18.8536 11.3279C18.8278 11.3288 18.8023 11.3229 18.7794 11.3108C18.7566 11.2987 18.7373 11.2809 18.7235 11.2592L18.695 11.2148C18.4683 10.8685 18.2173 10.5388 17.9439 10.2281C17.9286 10.2104 17.9186 10.1886 17.9153 10.1654C17.9119 10.1422 17.9154 10.1186 17.9251 10.0972C17.9348 10.0759 17.9505 10.0579 17.9702 10.0452C17.9899 10.0326 18.0129 10.0258 18.0363 10.0259H18.0388C18.6962 10.0259 19.0408 10.1882 19.1461 10.3867C19.2321 10.5524 19.2058 10.8426 18.9791 11.2512V11.251ZM19.3344 12.2213C19.3341 12.2319 19.3302 12.2419 19.3234 12.25C19.3166 12.258 19.3072 12.2634 19.2969 12.2654C19.2866 12.2673 19.2759 12.2657 19.2666 12.2608C19.2574 12.2558 19.2501 12.2479 19.2459 12.2382L19.2212 12.179C19.2133 12.1612 19.2103 12.1416 19.2125 12.1223C19.2146 12.103 19.2219 12.0845 19.2335 12.0689L19.2603 12.0338C19.2925 11.9919 19.3388 11.9981 19.3388 12.0447C19.3378 12.1059 19.3363 12.1589 19.3344 12.2216V12.2213Z" fill="white"/>
</svg>

<svg width="24" height="24" fill="none" xmlns="http://www.w3.org/2000/svg">
    <rect width="24" height="24" rx="12" fill="#7B2BF9"/>
    <path d="M19.827 10.339a8.007 8.007 0 0 0-9.798-6.093A8.003 8.003 0 0 0 5.361 7.53c-.085.113-.16.232-.228.357a8.008 8.008 0 0 0 6.318 12.094 8.002 8.002 0 0 0 7.875-4.752A7.998 7.998 0 0 0 20 12.004c0-.553-.056-1.104-.169-1.645 0-.007-.002-.014-.004-.02Zm-2.775-3.66.137.133a7.328 7.328 0 0 1 1.616 2.435.124.124 0 0 1-.136.168 3.7 3.7 0 0 0-.711-.05.37.37 0 0 1-.372-.303 10.75 10.75 0 0 0-.66-2.294.079.079 0 0 1 .126-.09Zm.761 4.695a.085.085 0 0 1 .155-.051 6.47 6.47 0 0 1 .379.59.185.185 0 0 1-.025.217 8.684 8.684 0 0 1-.28.292c-.037.037-.074.074-.113.11a.075.075 0 0 1-.08.013.073.073 0 0 1-.043-.067 16.73 16.73 0 0 0 .006-1.104h.001ZM7.738 6.024a7.283 7.283 0 0 1 4.26-1.363c.405 0 .81.033 1.209.1a.124.124 0 0 1 .057.218c-.383.3-.74.746-1.055 1.322a.343.343 0 0 1-.394.167c-1.044-.295-2.072-.433-3.021-.4a6.8 6.8 0 0 0-.993.106.083.083 0 0 1-.063-.15ZM6.69 16.99c-.154-.291.045-.966 1.058-1.99a.252.252 0 0 0-.022-.376l-.121-.097a.253.253 0 0 0-.339.018l-.04.04c-.506.52-.86 1-1.059 1.434a.174.174 0 0 1-.3.023 7.289 7.289 0 0 1-1.208-4.039c0-.515.053-1.028.16-1.532a.074.074 0 0 1 .144-.007c.152.503.4 1.024.743 1.55a9.732 9.732 0 0 0 1.79 2.013c.245.213.505.42.776.62.564.413 1.16.782 1.78 1.104.282.146.556.286.836.412a.636.636 0 0 0 .494.014c.132-.052.265-.106.4-.162a.32.32 0 0 0 .186-.373l-.011-.044a14.264 14.264 0 0 1-.359-3.074v-.04l-.001-.18v-.093c0-.069 0-.137.002-.206.003-.189.01-.375.02-.56.068-1.324.293-2.568.65-3.614a.185.185 0 0 0-.116-.235 7.475 7.475 0 0 0-.283-.093.184.184 0 0 0-.229.117c-.387 1.136-.625 2.484-.689 3.91a.537.537 0 0 1-.262.438 20.26 20.26 0 0 0-2.29 1.567.372.372 0 0 1-.475-.01 9.036 9.036 0 0 1-1.664-1.872c-.84-1.29-1.04-2.505-.561-3.42l.003-.006c.061-.1.124-.2.19-.299.549-.726 1.57-1.147 2.923-1.195.086-.003.172-.004.26-.004.83 0 1.722.137 2.629.398l.06.018.045.013c.21.063.42.132.63.208l.015.005.165.061.051.02.05.019c.451.175.892.374 1.322.598.817.422 1.586.931 2.293 1.52-1.285.294-2.78.863-4.282 1.63a.22.22 0 0 0-.12.182c-.005.093-.012.28-.017.43a.122.122 0 0 0 .179.111c1.486-.781 2.972-1.365 4.247-1.674a.477.477 0 0 0 .36-.53c-.024-.17-.05-.336-.08-.5a.834.834 0 0 0-.314-.52 13.831 13.831 0 0 0-3.4-1.886.18.18 0 0 1-.093-.259c.497-.89 1.09-1.387 1.665-1.387h.018c.68.012 1.358.72 1.86 1.942a10.187 10.187 0 0 1 .583 2.106c.058.331.104.673.138 1.024l-.009.006.013.012a16.068 16.068 0 0 1 .007 2.994c-.91.736-2.034 1.467-3.27 2.122-.406.216-.813.416-1.214.6l-.018.01-.093.042c-.333.15-.662.29-.988.417l-.055.021-.068.027-.163.061-.045.017c-.065.025-.13.048-.196.072l-.025.009c-.695.247-1.358.434-1.962.55-1.46.283-2.148.067-2.304-.228ZM8.7 14.14a19.12 19.12 0 0 1 2.236-1.55c.018 1.064.134 2.085.34 3.007A13.03 13.03 0 0 1 8.7 14.14Zm4.244 5.144c-.314.04-.63.06-.946.06a7.288 7.288 0 0 1-3.964-1.158.099.099 0 0 1-.007-.16.1.1 0 0 1 .057-.022c.02 0 .038-.002.054-.003.329-.023.655-.067.978-.13a14.972 14.972 0 0 0 2.464-.728.155.155 0 0 1 .199.086v.002c.339.826.757 1.45 1.226 1.848a.117.117 0 0 1-.06.205Zm3.103-1.96c-.524 1.03-1.17 1.61-1.795 1.598-.68-.012-1.357-.72-1.86-1.943a.154.154 0 0 1 .082-.2l.016-.007a.157.157 0 0 1 .105-.007 10.18 10.18 0 0 0 2.731.401 8.4 8.4 0 0 0 .6-.023.124.124 0 0 1 .113.056.125.125 0 0 1 .008.125Zm.226-.887a6.36 6.36 0 0 1-.69.061 8.604 8.604 0 0 1-1.849-.149.082.082 0 0 1-.067-.07.083.083 0 0 1 .045-.085 22.593 22.593 0 0 0 3.106-1.882.082.082 0 0 1 .123.033.082.082 0 0 1 .006.048 11.91 11.91 0 0 1-.456 1.86.273.273 0 0 1-.218.184Zm1.083.583a5.33 5.33 0 0 1-.169.173c-.099.1-.201.197-.307.29a.082.082 0 0 1-.129-.095 6.425 6.425 0 0 0 .16-.366.083.083 0 0 1 .056-.049c.104-.026.205-.055.304-.087a.082.082 0 0 1 .085.134Zm1.475-2.33c-.035.09-.072.18-.11.268l-.019.036c-.242.466-.648.833-1.19 1.088a.157.157 0 0 1-.22-.183c.188-.682.323-1.376.406-2.078a.555.555 0 0 1 .188-.353c.223-.193.431-.386.623-.577l.002-.003a.177.177 0 0 1 .294.075c.19.63.2 1.216.026 1.728Zm.147-3.439a.148.148 0 0 1-.255.008l-.029-.044a8.74 8.74 0 0 0-.751-.987.122.122 0 0 1 .092-.202h.003c.657 0 1.002.162 1.107.36.086.166.06.457-.167.865Zm.355.97a.047.047 0 0 1-.037.044.047.047 0 0 1-.03-.004.047.047 0 0 1-.021-.023l-.025-.059a.11.11 0 0 1 .012-.11l.027-.035c.032-.042.079-.036.079.01l-.005.178Z" fill="#fff"/>
</svg>
